public/img/assets/icons/weather-conditions/cloudy-night.svg

<svg width="120" height="120" viewBox="0 0 120 120" fill="none" xmlns="http://www.w3.org/2000/svg">
<path d="M82.9375 44.8C82.8496 44.8 82.7764 44.8294 82.7031 44.8294C82.8643 44.0656 82.9375 43.2725 82.9375 42.45C82.9375 35.9581 77.6934 30.7 71.2188 30.7C67.6152 30.7 64.4365 32.3597 62.2832 34.93C59.5586 29.6425 54.124 26 47.7813 26C38.7139 26 31.375 33.3584 31.375 42.45C31.375 43.5222 31.4922 44.5503 31.6826 45.5638C26.0723 47.4144 22 52.6578 22 58.9C22 66.6844 28.2988 73 36.0625 73H82.9375C90.7012 73 97 66.6844 97 58.9C97 51.1156 90.7012 44.8 82.9375 44.8Z" fill="#FF99FF"/>
<path d="M76.5 73C76.4344 73 76.3797 73.0219 76.325 73.0219C76.4453 72.4531 76.5 71.8625 76.5 71.25C76.5 66.4156 72.5844 62.5 67.75 62.5C65.0594 62.5 62.6859 63.7359 61.0781 65.65C59.0438 61.7125 54.9859 59 50.25 59C43.4797 59 38 63.9109 38 70.6812C38 71.4797 38.0875 72.2453 38.2297 73C34.0406 74.3781 31 78.8516 31 83.5C31 89.2969 35.7031 94 41.5 94H76.5C82.2969 94 87 89.2969 87 83.5C87 77.7031 82.2969 73 76.5 73Z" fill="#D580FF"/>
<path fill-rule="evenodd" clip-rule="evenodd" d="M38.2297 73L76.3296 73C76.4467 72.438 76.5 71.8547 76.5 71.25C76.5 66.4156 72.5844 62.5 67.75 62.5C65.0594 62.5 62.6859 63.7359 61.0781 65.65C59.0438 61.7125 54.9859 59 50.25 59C43.4797 59 38 63.9109 38 70.6812C38 71.4797 38.0875 72.2453 38.2297 73Z" fill="#9966FF"/>
</svg>

<svg width="120" height="120" fill="none" xmlns="http://www.w3.org/2000/svg"><path d="M82.938 44.8c-.088 0-.162.03-.235.03.161-.764.234-1.557.234-2.38 0-6.492-5.244-11.75-11.718-11.75-3.604 0-6.782 1.66-8.936 4.23C59.56 29.642 54.124 26 47.781 26c-9.067 0-16.406 7.358-16.406 16.45 0 1.072.117 2.1.308 3.114C26.073 47.414 22 52.658 22 58.9 22 66.684 28.299 73 36.063 73h46.874C90.701 73 97 66.684 97 58.9s-6.299-14.1-14.063-14.1Z" fill="#F9F"/><path d="M76.5 73c-.066 0-.12.022-.175.022.12-.569.175-1.16.175-1.772a8.748 8.748 0 0 0-8.75-8.75c-2.69 0-5.064 1.236-6.672 3.15C59.044 61.712 54.986 59 50.25 59 43.48 59 38 63.91 38 70.681c0 .799.087 1.564.23 2.319C34.04 74.378 31 78.852 31 83.5 31 89.297 35.703 94 41.5 94h35C82.297 94 87 89.297 87 83.5S82.297 73 76.5 73Z" fill="#D580FF"/><path fill-rule="evenodd" clip-rule="evenodd" d="M38.23 73h38.1a8.56 8.56 0 0 0 .17-1.75 8.748 8.748 0 0 0-8.75-8.75c-2.69 0-5.064 1.236-6.672 3.15C59.044 61.712 54.986 59 50.25 59 43.48 59 38 63.91 38 70.681c0 .799.087 1.564.23 2.319Z" fill="#96F"/></svg>
